X:1
T:Title
%%score { ( 1 3 5 ) | ( 2 4 ) }
L:1/8
M:4/4
K:Bb
V:1 treble nm="Grand Piano"
V:3 treble 
V:5 treble 
V:2 bass 
V:4 bass 
V:1
 z4 z2[Q:1/4=108] F2 | [DB]2 [DB]2 BABc | [DB]4[K:bass] z4[K:treble] | [DB]2 [DB]2 BAB=B | %4
 [Ec]6[K:bass][K:treble] z2 | [Ec]2 [Ec]2 c=Bcd | [Ec]4[K:bass] z4[K:treble] | [Ec]2 [Ec]2 c=Bc_d | %8
 [Dd]6[K:bass][K:treble] z2 | [Dd]2 [DA]2 [_DG]2 [D=E]2 | z2 z =E D2 [Dd]2 | %11
 [Dd]2 [DA]2 [_DG]2 [D=E]2 | z2 A,2 A,2 d2 | [Fd]2 [Fd]2 [Fd]2 [Fd]2 | [Ff]4[K:bass][K:treble] z4 | %15
 z4 z2 .B2 | F2[K:bass] E,2 D,2[K:treble] F2 | [Dd]3 [DB] [DF]2 D2 | z2 z F E2 F2 | e3 c A2 G2 | %20
 F6 z2 | G2 A2 B2 c2 | d2 e2 f2 [FB]2 | [Gc]2 [Gc]2 c2 de | [Fd]2 F2 F2 F2 | G2 A2 B2 c2 | %26
[M:9/8] d2 e- e f2- f B2 |[M:4/4] [Fd]2 [EGc]2 [DFB]2 [CEA]2 |[M:9/8] [B,DB]8- [B,DB] | %29
[M:6/8][Q:1/4=100] [B,EG] [B,GB]2 [B,GB] [C^FA]2 | [C^FA] [B,GB]2- [B,GB] [B,EG]2 | %31
 [B,GB] [Ge]2 [Ge] [_Ad]2 | [_Ac] [GB]2- [GB]2 z | G _A2 A G2 | G _A2- A [DF]2 | %35
 [D_A] [Ad]2 [Ad] [Ac]2 | [D_A] [EG]2- [EG]2 z | [EG] [GB]2 [GB][GB][F_A] | [GB] [_Ac]2 A E2 | %39
 c _d2 d d2 | [Ge] c2- c2 z | c c2 c d2 | e e2 B [CE_A]2 | [B,EG] [B,DG]2 [CD_A] [B,DG]2 | %44
[M:9/16] [_A,DF][G,E]/- [G,E]3- |[M:4/4] [G,E][Q:1/4=108] F2 [DB]- [DB] [DB]2 B | %46
 ABcB- B-[F,-B]F,[K:bass][F,D]- | [F,D][K:treble] [F,EF]2 [DB]- [DB] [DB]2 B | AB .=B2 z F,2 F,- | %49
 F, F2 [Ec]- [Ec] [Ec]2 c | =Bcdc- c-[F,-c]F,[F,EF]- | [F,EF] [F,F]2 [Ec]- [Ec] [Ec]2 c | %52
 =Bc ._d2 z F,2 F,- | F, d2 [Dd]- [Dd] [DA]2 [_DG]- | [DG] .[_D=E]3 z2 E=D- | %55
 D [Dd]2 [Dd]- [Dd] [DA]2 [_DG]- | [DG] .[_D=E]3 z A,2 A,- | A, d2 [Fd]- [Fd] [Fd]2 [Fd]- | %58
 [Fd] .[Fd]3 z[K:bass] [C,A,]2[K:treble] [Fc]- | [Fc] [FA]2 [=Ec]- [Ec] [Ec]2 [Ec]- | %60
 [Ec]=E-[EG]F- F[K:bass] E,2 D,- | D,[K:treble] F2 [Dd]- [Dd]2 [DB][DF]- | [DF] .D3 z2 FE- | %63
 E F2 e- e2 cA- | A G2 D- D D2 D- | D F2 G- G A2 B- | B c2 d- d e2 f- | %67
 f [FB]2 [Gc]- [Gc] [Gc]2 c- | cde[Fd]- [Fd] F2 F- | F F2 G- G A2 B- |[M:9/8] B c2 d2 e- e f2- | %71
[M:4/4] f B2 [Fd]- [Fd] [Gc]2 [FB]- | %72
[M:17/8] [FB] [EA]2 [DB]-[DB]-[DB]-[DB]-[DB]-[DB]- [DB]3 z z z z2 |] %73
V:2
 z4 z2 F,2 | [B,,F,]2 [F,,F,]2 [B,,F,]2 [F,,F,]2 | [B,,F,]2 z F B,,2 F,,2 | %3
 [B,,F,]2 [F,,F,]2 [B,,F,]2 [F,,F,]2 | [A,,F,]2 F,,2 A,,2 [F,,F,]2 | %5
 [A,,F,]2 [F,,F,]2 [A,,F,]2 [F,,F,]2 | [A,,F,]2 z A A,,2 F,,2 | %7
 [A,,F,]2 [F,,F,]2 [A,,F,]2 [F,,F,]2 | [B,,F,]2 F,,2 B,,2 D2 | %9
 [A,,^F,A,]2 [A,,F,A,]2 [A,,=E,A,]2 [A,,G,]2 | [D,^F,]2 [D,F,]2 [D,F,A,]2 [D,F,A,]2 | %11
 [A,,^F,A,]2 [A,,F,A,]2 [A,,=E,A,]2 [A,,G,]2 | [D,^F,]2 [D,F,]2 [D,F,]2 [D,F,A,D]2 | %13
 [=B,,_A,]2 [B,,A,]2 [B,,A,]2 [B,,A,]2 | [C,A,]2 z2 [C,A,]2 [C,C]2 | [C,G,]2 [C,G,]2 [C,G,]2 G,B, | %16
 [F,A,]2 E,,2 D,,2 F,2 | [B,,F,]3 [B,,F,] [B,,B,]2 [B,,B,]2 | [F,A,C]2 [F,A,]2 [F,A,C]2 [F,A,E]2 | %19
 [F,A,F]3 [F,A,F] [F,CE]2 [F,A,E]2 | [B,,B,]2 [B,,B,]2 [B,,B,]2 [D,B,]2 | %21
 [E,G,B,]2 [D,F,D]2[K:treble] [G,D]2 [F,A,F]2 | [B,F]4 z4[K:bass] | %23
 [E,B,]2 [E,B,]2 [F,A,F]2 [F,A,F]2 | [B,,B,]2 F,2 F,2 [D,B,]2 | %25
 [E,G,B,]2 [D,^F,D]2[K:treble] [G,D]2 [=F,A,F]2 |[M:9/8] .[B,F]6 z3 | %27
[M:4/4][K:bass] [D,B,]2 E,2 F,2 F,2 |[M:9/8] B,,8- B,, |[M:6/8] E, E,2 E, E,2 | E, E,2- E, E,2 | %31
 E, [E,B,]2 [E,=B,] [E,C]2 | [E,D] [E,E]2- [E,E]2 z | [E,B,E] [F,B,D]2 [F,B,D] [=E,B,_D]2 | %34
 [=E,B,_D] [F,B,=D]2- [F,B,D] [B,,B,]2 | [B,,B,] [B,,B,]2 [B,,B,] [B,,B,]2 | %36
 [B,,B,] [E,B,]2- [E,B,]2 z | [E,B,] [E,_D]2 [E,D]2 [E,D] | .[E,_D]3[K:treble] E [_A,C]2 | %39
 [_A,E_A] [B,EG]2 [B,EG] [B,EG]2 | [E,E] [_A,E_A]2- [A,EA]2 z | [_A,E_A] [=A,E^F]2 [A,EF] [A,DF]2 | %42
 [A,C^F] [B,EG]2- [B,EG][K:bass] B,,2 | B,, B,,2 B,, B,,2 |[M:9/16] z9/2 |[M:4/4] z8 | z4 z .F,,3 | %47
 z8 | z8 | z8 | z4 z .F,,3 | z8 | z8 | z8 | z8 | z8 | z8 | z8 | z8 | z8 | z .C,3 z4 | z8 | z8 | %63
 z8 | z8 | z8[K:treble] | z2 z [B,F]- [B,F]3 z | z8[K:bass] | z8 | z8[K:treble] | %70
[M:9/8] z3 .[B,F]6 |[M:4/4] z8[K:bass] |[M:17/8] z17 |] %73
V:3
 x8 | z4 D2 D2 | z2[K:bass] F,2 [F,D]2[K:treble] [F,EF]2 | z4 D2 D2 | %4
 z2[K:bass] F,2 F,2[K:treble] F2 | z4 E2 E2 | z2[K:bass] F,2 [F,EF]2[K:treble] [F,F]2 | z4 E2 E2 | %8
 z2[K:bass] F,2 F,2[K:treble] d2 | x8 | D4 z4 | x8 | D6 z2 | x8 | %14
 z2[K:bass] [C,A,]2[K:treble] [Fc]2 [FA]2 | [=Ec]2 [Ec]2 [Ec]2 E-[EG] | %16
 x2[K:bass] x4[K:treble] x2 | x8 | E4 z4 | x8 | D2 D2 D2 F2 | x8 | x8 | x8 | x8 | x8 |[M:9/8] x9 | %27
[M:4/4] x8 |[M:9/8] x9 |[M:6/8] x6 | x6 | x6 | x6 | x6 | x6 | x6 | x6 | x6 | x6 | x6 | x6 | x6 | %42
 x6 | x6 |[M:9/16] x9/2 |[M:4/4] z4 z2 z D- | D D2 D- D3[K:bass] z | z4[K:treble] z2 z D- | %48
 D D2 [Ec]- [Ec]4- | [Ec] z z2 z2 z E- | E E2 E- E3 z | z4 z2 z E- | E E2 [D=d]- [Dd]4- | %53
 [Dd] z z2 z4 | z2 z =D- D2 z2 | x8 | z2 z =D- D4- | D z z2 z4 | %58
 z2 z [Ff]- [Ff]3[K:bass][K:treble] z | x8 | z B z2 z4[K:bass] | x[K:treble] x7 | z2 z E- E2 z2 | %63
 x8 | z2 z F- F4- | F z z2 z4 | x8 | x8 | x8 | x8 |[M:9/8] x9 |[M:4/4] x8 |[M:17/8] x17 |] %73
V:4
 x8 | x8 | z2 F,,2 z4 | x8 | x8 | x8 | z2 F,,2 z4 | x8 | x8 | x8 | x8 | x8 | x8 | x8 | x8 | %15
 z4 z2 C,2 | x8 | x8 | x8 | x8 | x8 | x4[K:treble] x4 | z2 C2 [B,DF]2[K:bass] [D,B,]2 | x8 | x8 | %25
 x4[K:treble] x4 |[M:9/8] z2 C- C [B,DF]2- [B,DF] [B,DF]2 |[M:4/4][K:bass] x8 |[M:9/8] x9 | %29
[M:6/8] x6 | x6 | x6 | x6 | x6 | x6 | x6 | x6 | x6 | z[K:treble] [_A,C]2- [A,C] z z | x6 | x6 | %41
 x6 | x4[K:bass] x2 | x6 |[M:9/16] B,,E,/- E,3- | %45
[M:4/4] E, F,2 [B,,F,]- [B,,F,] [F,,F,]2 [B,,F,]- | [B,,F,] [F,,F,]2 [B,,F,]- [B,,F,] z FB,,- | %47
 B,, F,,2 [B,,F,]- [B,,F,] [F,,F,]2 [B,,F,]- | [B,,F,] [F,,F,]2 [A,,F,]- [A,,F,] F,,2 A,,- | %49
 A,, [F,,F,]2 [A,,F,]- [A,,F,] [F,,F,]2 [A,,F,]- | [A,,F,] [F,,F,]2 [A,,F,]- [A,,F,] z AA,,- | %51
 A,, F,,2 [A,,F,]- [A,,F,] [F,,F,]2 [A,,F,]- | [A,,F,] [F,,F,]2 [B,,F,]- [B,,F,] F,,2 B,,- | %53
 B,, D2 [A,,^F,A,]- [A,,F,A,] [A,,F,A,]2 [A,,=E,A,]- | %54
 [A,,E,A,] [A,,G,]2 [D,^F,]- [D,F,] [D,F,]2 [D,F,A,]- | %55
 [D,F,A,] [D,^F,A,]2 [A,,F,A,]- [A,,F,A,] [A,,F,A,]2 [A,,=E,A,]- | %56
 [A,,E,A,] [A,,G,]2 [D,^F,]- [D,F,] [D,F,]2 [D,F,]- | %57
 [D,F,] [D,^F,A,D]2 [=B,,_A,]- [B,,A,] [B,,A,]2 [B,,A,]- | %58
 [B,,A,] [=B,,_A,]2 [C,=A,]- [C,A,] z z [C,A,]- | [C,A,] [C,C]2 [C,G,]- [C,G,] [C,G,]2 [C,G,]- | %60
 [C,G,]G,B,[F,A,]- [F,A,] E,,2 D,,- | D,, F,2 [B,,F,]- [B,,F,]2 [B,,F,][B,,B,]- | %62
 [B,,B,] [B,,B,]2 [F,A,C]- [F,A,C] [F,A,]2 [F,A,C]- | %63
 [F,A,C] [F,A,E]2 [F,A,F]- [F,A,F]2 [F,A,F][F,CE]- | %64
 [F,CE] [F,A,E]2 [B,,B,]- [B,,B,] [B,,B,]2 [B,,B,]- | %65
 [B,,B,] [D,B,]2 [E,G,B,]- [E,G,B,] [D,F,D]2[K:treble] [G,D]- | [G,D] .[F,A,F]3 z C2 [B,DF]- | %67
 [B,DF][K:bass] [D,B,]2 [E,B,]- [E,B,] [E,B,]2 [F,A,F]- | %68
 [F,A,F] [F,A,F]2 [B,,B,]- [B,,B,] F,2 F,- | %69
 F, [D,B,]2 [E,G,B,]- [E,G,B,] [D,^F,D]2[K:treble] [G,D]- | %70
[M:9/8] [G,D] [F,A,F]2 z2 C- C [B,DF]2- | %71
[M:4/4] [B,DF] [B,DF]2[K:bass] [D,B,]- [D,B,] [E,E]2 [F,D]- | %72
[M:17/8] [F,D] [F,C]2 [B,,B,]-[B,,B,]-[B,,B,]-[B,,B,]-[B,,B,]-[B,,B,]- [B,,B,]3 z z z z2 |] %73
V:5
 x8 | x8 | x2[K:bass] x4[K:treble] x2 | x8 | x2[K:bass] x4[K:treble] x2 | x8 | %6
 x2[K:bass] x4[K:treble] x2 | x8 | x2[K:bass] x4[K:treble] x2 | x8 | z2 A,2 z4 | x8 | x8 | x8 | %14
 x2[K:bass] x2[K:treble] x4 | x8 | x2[K:bass] x4[K:treble] x2 | x8 | z2 C2 z4 | x8 | x8 | x8 | x8 | %23
 x8 | x8 | x8 |[M:9/8] x9 |[M:4/4] x8 |[M:9/8] x9 |[M:6/8] x6 | x6 | x6 | x6 | x6 | x6 | x6 | x6 | %37
 x6 | x6 | x6 | x6 | x6 | x6 | x6 |[M:9/16] x9/2 |[M:4/4] x8 | x7[K:bass] x | x[K:treble] x7 | x8 | %49
 x8 | x8 | x8 | x8 | x8 | z4 z .A,3 | x8 | x8 | x8 | x5[K:bass] x2[K:treble] x | x8 | %60
 x5[K:bass] x3 | x[K:treble] x7 | z4 z .C3 | x8 | x8 | x8 | x8 | x8 | x8 | x8 |[M:9/8] x9 | %71
[M:4/4] x8 |[M:17/8] x17 |] %73

